X:503
T:Allonby Lasses. BF13.037
M:2/2
L:1/8
Q:200
S:J.Lishman(?)MS,c1825,Lakes,Browne Coll.
R:Reel
O:England
A:Lakes
Z:vmp.Cherri Graebe.
K:G major
c|BGGc BGdG|BGGc Bdge|BGGc BGdG|cAAB cdef:|!
|gage dBGB|gage dfaf|gage dBGB|cAAB cdef|!
gage dBGB|gage dfaf|gbeg dgBg|cAAB cdef|]


